X: 1
T: THE LIMERICK LASS -- JIG
B: Ryan's Mammoth Collection of Fiddle Tunes
R: jig
M: 6/8
L: 1/8
Z: Contributed 20010527162001 by John Chambers jc:trillian.mit.edu
K: G
{c}vBAA AGA | BGG G2A | BAA ABd | efe edB \
|   BAA AGA | BGG G2A | GED G2A | Bdd dBA :|
|: udef g2g | f2f e2e | def g2g | f2f edB \
|   def g2g | f2f e2e | dBA ABd | efe edB :|
